X: 1
T: Humours of Trim
T: Rolling Waves
M: 6/8
L: 1/8
K: D
~F3 DED|D2 d cAG|~F3 DED|A2 F GFE|
~F3 DED|D2 d cAG|F/G/AF GBG|A2 F GFE:||
D2 d cAd|cAd cAG|F2 d cAd|A2 F GFE|
D2 d cAd|fed cAG|F/G/AF GBG|A2 F GFE||
